; generated by PrusaSlicer 2.3.1+x64 on 2021-05-20 at 20:58:54 UTC

; 

; external perimeters extrusion width = 0.45mm
; perimeters extrusion width = 0.45mm
; infill extrusion width = 0.45mm
; solid infill extrusion width = 0.45mm
; top infill extrusion width = 0.40mm
; first layer extrusion width = 0.42mm

M73 P0 R66
M73 Q0 S66
M201 X1000 Y1000 Z200 E5000 ; sets maximum accelerations, mm/sec^2
M203 X200 Y200 Z12 E120 ; sets maximum feedrates, mm/sec
M204 P1250 R1250 T1250 ; sets acceleration (P, T) and retract acceleration (R), mm/sec^2
M205 X8.00 Y8.00 Z0.40 E4.50 ; sets the jerk limits, mm/sec
M205 S0 T0 ; sets the minimum extruding and travel feed rate, mm/sec
M107
;TYPE:Custom
M862.3 P "MK3S" ; printer model check
M862.1 P0.4 ; nozzle diameter check
M115 U3.9.3 ; tell printer latest fw version
G90 ; use absolute coordinates
M83 ; extruder relative mode
M104 S215 ; set extruder temp
M140 S60 ; set bed temp
M190 S60 ; wait for bed temp
M109 S215 ; wait for extruder temp
G28 W ; home all without mesh bed level
G80 ; mesh bed leveling
G1 Y-3.0 F1000.0 ; go outside print area
G92 E0.0
G1 X60.0 E9.0 F1000.0 ; intro line
G1 X100.0 E12.5 F1000.0 ; intro line
G92 E0.0
M221 S95

; Don't change E values below. Excessive value can damage the printer.
M907 E430 ; set extruder motor current
G21 ; set units to millimeters
G90 ; use absolute coordinates
M83 ; use relative distances for extrusion
M900 K0.05 ; Filament gcode LA 1.5
M900 K30 ; Filament gcode LA 1.0
;LAYER_CHANGE
;Z:0.2
;HEIGHT:0.2
;BEFORE_LAYER_CHANGE
G92 E0.0
;0.2


G1 E-0.80000 F2100.000
G1 Z0.400 F10800.000
;AFTER_LAYER_CHANGE
;0.2
G1 X73.953 Y87.906
G1 Z0.200
G1 E0.80000 F2100.000
M204 S1000
;TYPE:Skirt
;WIDTH:0.42
G1 F1200.000
G1 X75.344 Y87.628 E0.04447
G1 X158.369 Y82.377 E2.60840
G1 X174.504 Y82.373 E0.50590
G1 X175.047 Y82.425 E0.01712
G1 X176.139 Y82.691 E0.03523
G1 X177.134 Y83.281 E0.03627
G1 X177.578 Y83.638 E0.01784
G1 X177.949 Y84.084 E0.01821
G1 X178.542 Y85.072 E0.03613
G1 X178.713 Y85.618 E0.01792
G1 X178.876 Y86.670 E0.03338
G1 X178.871 Y123.414 E1.15207
G1 X178.586 Y124.818 E0.04493
G1 X177.913 Y125.966 E0.04173
G1 X177.250 Y126.639 E0.02965
G1 X176.047 Y127.344 E0.04371
G1 X174.538 Y127.627 E0.04813
G1 X158.382 Y127.624 E0.50657
G1 X75.323 Y122.371 E2.60945
G1 X73.928 Y122.085 E0.04464
G1 X72.781 Y121.411 E0.04173
G1 X72.111 Y120.750 E0.02953
G1 X71.406 Y119.547 E0.04371
G1 X71.123 Y118.023 E0.04860
G1 X71.131 Y91.810 E0.82190
G1 X71.418 Y90.421 E0.04445
G1 X72.091 Y89.278 E0.04161
G1 X72.750 Y88.611 E0.02941
G1 X73.901 Y87.936 E0.04183
;WIPE_START
G1 F8640.000
G1 X75.344 Y87.628 E-0.34058
G1 X77.157 Y87.513 E-0.41942
;WIPE_END
G1 E-0.04000 F2100.000
G1 Z0.600 F10800.000
G1 X109.376 Y85.287
G1 Z0.200
G1 E0.80000 F2100.000
G1 F1200.000
G1 X75.284 Y85.287 E1.06894
G1 X73.083 Y85.729 E0.07039
G1 X72.432 Y86.044 E0.02267
G1 X71.337 Y86.747 E0.04081
G1 X70.152 Y87.974 E0.05347
G1 X69.192 Y89.703 E0.06202
G1 X68.802 Y91.630 E0.06164
G1 X68.786 Y118.216 E0.83359
G1 X69.229 Y120.417 E0.07040
G1 X69.544 Y121.068 E0.02267
G1 X70.244 Y122.159 E0.04063
G1 X71.365 Y123.271 E0.04953
G1 X72.414 Y123.947 E0.03912
G1 X73.067 Y124.264 E0.02275
G1 X75.292 Y124.713 E0.07119
G1 X109.379 Y124.713 E1.06874
;WIPE_START
G1 F8640.000
G1 X106.087 Y124.713 E-0.76000
;WIPE_END
G1 E-0.04000 F2100.000
G1 Z0.600 F10800.000
G1 X115.352 Y124.713
G1 Z0.200
G1 E0.80000 F2100.000
G1 F1200.000
G1 X151.992 Y124.713 E1.14883
G1 X152.131 Y125.358 E0.02067
G1 X152.508 Y126.253 E0.03046
G1 X153.061 Y127.099 E0.03169
G1 X153.320 Y127.493 F10800.000
G1 F1200.000
G1 X154.024 Y128.247 E0.03235
G1 X155.286 Y129.125 E0.04821
G1 X156.699 Y129.709 E0.04794
G1 X158.316 Y129.963 E0.05132
G1 X174.716 Y129.963 E0.51422
G1 X176.917 Y129.521 E0.07039
G1 X177.568 Y129.206 E0.02267
G1 X178.659 Y128.506 E0.04063
G1 X179.771 Y127.385 E0.04953
G1 X180.447 Y126.336 E0.03912
G1 X180.764 Y125.683 E0.02276
G1 X181.210 Y123.495 E0.07003
G1 X181.213 Y86.549 E1.15841
M73 P0 R65
G1 X180.948 Y84.934 E0.05131
G1 X180.719 Y84.205 E0.02397
G1 X179.752 Y82.599 E0.05877
G1 X179.226 Y81.972 E0.02565
G1 X177.095 Y80.551 E0.08030
G1 X176.343 Y80.310 E0.02479
G1 X174.712 Y80.037 E0.05183
G1 X158.308 Y80.037 E0.51435
G1 X156.763 Y80.277 E0.04901
G1 X155.339 Y80.840 E0.04802
G1 X154.073 Y81.708 E0.04811
G1 X153.390 Y82.415 E0.03084
G1 X153.329 Y82.506 E0.00344
G1 X153.066 Y82.901 F10800.000
G1 F1200.000
G1 X152.529 Y83.706 E0.03035
G1 X152.142 Y84.607 E0.03074
G1 X151.996 Y85.287 E0.02179
G1 X115.350 Y85.287 E1.14901
;WIPE_START
G1 F8640.000
G1 X118.641 Y85.287 E-0.76000
;WIPE_END
G1 E-0.04000 F2100.000
G1 Z0.600 F10800.000
G1 X109.388 Y85.664
G1 Z0.200
G1 E0.80000 F2100.000
G1 F1200.000
G1 X152.303 Y85.664 E1.34557
M73 P1 R65
M73 Q1 S66
G1 X152.497 Y84.737 E0.02968
G1 X152.852 Y83.901 E0.02850
G1 X153.539 Y82.871 E0.03881
G1 X153.855 Y82.473 F10800.000
G1 F1200.000
G1 X154.330 Y81.985 E0.02136
G1 X155.534 Y81.164 E0.04568
G1 X156.843 Y80.647 E0.04412
G1 X158.323 Y80.414 E0.04698
G1 X174.696 Y80.414 E0.51339
G1 X176.266 Y80.679 E0.04991
G1 X176.954 Y80.902 E0.02268
G1 X178.955 Y82.236 E0.07541
G1 X179.438 Y82.807 E0.02344
G1 X180.366 Y84.341 E0.05621
G1 X180.579 Y85.009 E0.02199
G1 X180.836 Y86.564 E0.04942
G1 X180.836 Y123.439 E1.15618
G1 X180.414 Y125.541 E0.06722
G1 X180.124 Y126.142 E0.02092
G1 X179.465 Y127.164 E0.03814
G1 X178.438 Y128.200 E0.04574
G1 X177.374 Y128.882 E0.03961
G1 X176.775 Y129.170 E0.02085
G1 X174.698 Y129.586 E0.06643
G1 X158.331 Y129.586 E0.51317
G1 X156.781 Y129.340 E0.04921
G1 X155.450 Y128.785 E0.04521
G1 X154.283 Y127.973 E0.04457
G1 X153.857 Y127.527 E0.01935
G1 X153.532 Y127.128 F10800.000
G1 F1200.000
G1 X152.833 Y126.061 E0.04000
G1 X152.486 Y125.230 E0.02824
G1 X152.300 Y124.336 E0.02862
G1 X109.390 Y124.336 E1.34540
;WIPE_START
G1 F8640.000
G1 X112.682 Y124.336 E-0.76000
;WIPE_END
G1 E-0.04000 F2100.000
G1 Z0.600 F10800.000
G1 X103.417 Y124.336
G1 Z0.200
G1 E0.80000 F2100.000
G1 F1200.000
G1 X75.311 Y124.336 E0.88124
G1 X73.209 Y123.914 E0.06722
G1 X72.608 Y123.624 E0.02092
G1 X71.586 Y122.965 E0.03814
G1 X70.550 Y121.938 E0.04574
G1 X69.868 Y120.874 E0.03961
G1 X69.580 Y120.275 E0.02085
G1 X69.164 Y118.197 E0.06643
G1 X69.175 Y91.686 E0.83125
G1 X69.555 Y89.807 E0.06011
G1 X70.469 Y88.180 E0.05851
G1 X71.558 Y87.052 E0.04917
G1 X72.626 Y86.368 E0.03976
G1 X73.225 Y86.080 E0.02085
G1 X75.302 Y85.664 E0.06643
G1 X103.415 Y85.664 E0.88144
G1 X103.427 Y86.041 F10800.000
G1 F1200.000
G1 X152.612 Y86.041 E1.54217
G1 X152.851 Y84.867 E0.03757
G1 X153.192 Y84.064 E0.02734
G1 X154.024 Y82.840 E0.04639
G1 X154.412 Y82.438 F10800.000
G1 F1200.000
G1 X154.559 Y82.285 E0.00666
G1 X155.729 Y81.487 E0.04440
G1 X156.922 Y81.016 E0.04023
G1 X158.338 Y80.791 E0.04494
G1 X174.680 Y80.791 E0.51241
G1 X176.189 Y81.048 E0.04797
G1 X176.813 Y81.252 E0.02058
G1 X178.685 Y82.501 E0.07056
G1 X179.124 Y83.016 E0.02123
G1 X180.014 Y84.478 E0.05365
G1 X180.209 Y85.085 E0.02001
G1 X180.459 Y86.580 E0.04752
G1 X180.459 Y123.420 E1.15510
M73 Q1 S65
G1 X180.064 Y125.399 E0.06327
G1 X179.800 Y125.947 E0.01908
G1 X179.159 Y126.944 E0.03715
G1 X178.217 Y127.894 E0.04195
G1 X177.181 Y128.558 E0.03859
G1 X176.634 Y128.820 E0.01901
G1 X174.679 Y129.209 E0.06249
G1 X158.346 Y129.209 E0.51211
G1 X156.863 Y128.971 E0.04710
G1 X155.649 Y128.464 E0.04125
G1 X154.514 Y127.675 E0.04333
G1 X154.407 Y127.562 E0.00489
G1 X154.026 Y127.160 F10800.000
G1 F1200.000
G1 X153.939 Y127.068 E0.00398
G1 X153.174 Y125.900 E0.04377
G1 X152.841 Y125.102 E0.02710
G1 X152.609 Y123.959 E0.03657
G1 X103.429 Y123.959 E1.54201
;WIPE_START
G1 F8640.000
G1 X106.720 Y123.959 E-0.76000
;WIPE_END
G1 E-0.04000 F2100.000
G1 Z0.600 F10800.000
G1 X97.455 Y123.959
G1 Z0.200
G1 E0.80000 F2100.000
G1 F1200.000
G1 X75.330 Y123.959 E0.69374
G1 X73.351 Y123.564 E0.06327
G1 X72.803 Y123.300 E0.01908
G1 X71.806 Y122.659 E0.03715
G1 X70.856 Y121.717 E0.04195
G1 X70.192 Y120.681 E0.03859
G1 X69.930 Y120.134 E0.01901
G1 X69.541 Y118.179 E0.06249
G1 X69.548 Y91.741 E0.82896
G1 X69.899 Y89.965 E0.05675
G1 X70.785 Y88.386 E0.05679
G1 X71.780 Y87.358 E0.04484
G1 X72.819 Y86.692 E0.03870
G1 X73.366 Y86.430 E0.01901
G1 X75.321 Y86.041 E0.06249
G1 X97.453 Y86.041 E0.69395
G1 X97.465 Y86.418 F10800.000
G1 F1200.000
G1 X152.920 Y86.418 E1.73874
G1 X153.217 Y84.961 E0.04660
G1 X153.532 Y84.230 E0.02498
G1 X154.261 Y83.137 E0.04121
G1 X154.578 Y82.805 E0.01437
G1 X155.064 Y82.397 F10800.000
G1 F1200.000
G1 X155.924 Y81.810 E0.03262
G1 X157.002 Y81.385 E0.03635
G1 X158.353 Y81.168 E0.04288
G1 X174.664 Y81.169 E0.51143
G1 X176.111 Y81.418 E0.04602
G1 X176.670 Y81.602 E0.01848
G1 X178.416 Y82.766 E0.06577
G1 X178.810 Y83.227 E0.01903
G1 X179.663 Y84.616 E0.05109
G1 X179.840 Y85.162 E0.01802
G1 X180.082 Y86.596 E0.04559
G1 X180.082 Y123.402 E1.15402
G1 X179.714 Y125.258 E0.05933
G1 X179.477 Y125.753 E0.01722
G1 X178.852 Y126.723 E0.03615
G1 X177.996 Y127.588 E0.03816
G1 X176.987 Y128.234 E0.03756
G1 X176.493 Y128.469 E0.01716
G1 X174.661 Y128.832 E0.05857
G1 X158.361 Y128.832 E0.51106
G1 X156.945 Y128.603 E0.04497
G1 X155.848 Y128.143 E0.03731
G1 X155.073 Y127.604 E0.02961
G1 X154.575 Y127.194 F10800.000
G1 F1200.000
G1 X154.225 Y126.822 E0.01602
G1 X153.514 Y125.737 E0.04066
G1 X153.207 Y125.009 E0.02480
G1 X152.917 Y123.582 E0.04563
G1 X97.467 Y123.582 E1.73860
;WIPE_START
G1 F8640.000
G1 X100.759 Y123.582 E-0.76000
;WIPE_END
G1 E-0.04000 F2100.000
G1 Z0.600 F10800.000
G1 X91.494 Y123.582
M73 P2 R65
M73 Q2 S65
G1 Z0.200
G1 E0.80000 F2100.000
G1 F1200.000
G1 X75.348 Y123.582 E0.50625
G1 X73.492 Y123.214 E0.05933
G1 X72.997 Y122.977 E0.01722
G1 X72.027 Y122.352 E0.03615
G1 X71.162 Y121.496 E0.03816
G1 X70.516 Y120.487 E0.03756
G1 X70.281 Y119.993 E0.01716
G1 X69.918 Y118.161 E0.05857
G1 X69.922 Y91.796 E0.82666
G1 X70.263 Y90.068 E0.05520
G1 X71.101 Y88.593 E0.05320
G1 X72.002 Y87.664 E0.04058
G1 X73.013 Y87.016 E0.03764
G1 X73.507 Y86.781 E0.01716
G1 X75.339 Y86.418 E0.05857
G1 X91.492 Y86.418 E0.50645
G1 X91.504 Y86.795 F10800.000
G1 F1200.000
G1 X153.314 Y86.795 E1.93801
G1 X153.332 Y86.238 E0.01748
G1 X153.571 Y85.092 E0.03669
G1 X153.856 Y84.423 E0.02279
G1 X154.547 Y83.383 E0.03916
G1 X155.018 Y82.885 E0.02150
G1 X155.192 Y82.766 E0.00659
G1 X155.802 Y82.350 F10800.000
G1 F1200.000
G1 X156.119 Y82.134 E0.01203
G1 X157.083 Y81.754 E0.03249
G1 X158.368 Y81.545 E0.04082
G1 X174.648 Y81.546 E0.51043
G1 X176.031 Y81.787 E0.04404
G1 X176.527 Y81.952 E0.01638
G1 X178.147 Y83.031 E0.06105
G1 X178.498 Y83.438 E0.01683
G1 X179.311 Y84.755 E0.04853
G1 X179.470 Y85.240 E0.01601
G1 X179.705 Y86.612 E0.04365
G1 X179.705 Y123.384 E1.15294
G1 X179.363 Y125.118 E0.05542
G1 X179.153 Y125.560 E0.01534
G1 X178.546 Y126.502 E0.03515
G1 X177.775 Y127.281 E0.03438
G1 X176.794 Y127.910 E0.03652
G1 X176.353 Y128.118 E0.01528
G1 X174.643 Y128.455 E0.05467
G1 X158.377 Y128.455 E0.51000
G1 X157.029 Y128.234 E0.04284
G1 X156.047 Y127.822 E0.03337
G1 X155.799 Y127.650 E0.00947
G1 X155.202 Y127.234 F10800.000
G1 F1200.000
G1 X154.979 Y127.079 E0.00851
G1 X154.513 Y126.578 E0.02145
G1 X153.840 Y125.546 E0.03862
G1 X153.562 Y124.880 E0.02262
G1 X153.328 Y123.730 E0.03680
G1 X153.312 Y123.205 E0.01647
G1 X91.506 Y123.205 E1.93788
;WIPE_START
M73 P2 R64
G1 F8640.000
G1 X94.797 Y123.205 E-0.76000
;WIPE_END
G1 E-0.04000 F2100.000
G1 Z0.600 F10800.000
G1 X85.532 Y123.205
G1 Z0.200
G1 E0.80000 F2100.000
G1 F1200.000
G1 X75.366 Y123.205 E0.31875
G1 X73.632 Y122.863 E0.05542
G1 X73.190 Y122.653 E0.01534
G1 X72.248 Y122.046 E0.03515
G1 X71.469 Y121.275 E0.03438
G1 X70.840 Y120.294 E0.03652
G1 X70.632 Y119.853 E0.01528
G1 X70.295 Y118.142 E0.05467
G1 X70.296 Y91.848 E0.82443
G1 X70.606 Y90.227 E0.05176
G1 X71.417 Y88.800 E0.05146
G1 X72.224 Y87.970 E0.03631
G1 X73.206 Y87.340 E0.03658
G1 X73.647 Y87.132 E0.01528
G1 X75.357 Y86.795 E0.05467
G1 X85.530 Y86.795 E0.31896
G1 X85.542 Y87.172 F10800.000
G1 F1200.000
G1 X153.683 Y87.172 E2.13652
G1 X153.704 Y86.296 E0.02747
G1 X153.926 Y85.221 E0.03442
G1 X154.180 Y84.617 E0.02054
G1 X154.852 Y83.605 E0.03810
G1 X155.247 Y83.185 E0.01809
G1 X155.929 Y82.720 E0.02587
G1 X156.736 Y82.291 F10800.000
G1 F1200.000
G1 X157.164 Y82.122 E0.01442
G1 X158.384 Y81.922 E0.03875
G1 X174.631 Y81.923 E0.50942
G1 X175.951 Y82.155 E0.04204
G1 X176.383 Y82.301 E0.01427
G1 X177.880 Y83.298 E0.05640
G1 X178.186 Y83.651 E0.01465
G1 X178.961 Y84.896 E0.04597
G1 X179.101 Y85.319 E0.01399
G1 X179.328 Y86.629 E0.04168
G1 X179.328 Y123.366 E1.15186
G1 X179.012 Y124.979 E0.05154
G1 X178.829 Y125.366 E0.01344
G1 X178.239 Y126.282 E0.03414
G1 X177.554 Y126.975 E0.03059
G1 X176.601 Y127.586 E0.03547
G1 X176.215 Y127.767 E0.01339
G1 X174.624 Y128.078 E0.05080
G1 X158.392 Y128.078 E0.50894
G1 X157.112 Y127.866 E0.04069
G1 X156.740 Y127.709 E0.01267
G1 X155.928 Y127.280 F10800.000
G1 F1200.000
G1 X155.211 Y126.781 E0.02738
G1 X154.820 Y126.358 E0.01805
G1 X154.166 Y125.355 E0.03757
G1 X153.918 Y124.754 E0.02038
G1 X153.701 Y123.673 E0.03456
G1 X153.682 Y122.828 E0.02651
G1 X85.544 Y122.828 E2.13641
;WIPE_START
G1 F8640.000
G1 X88.836 Y122.828 E-0.76000
;WIPE_END
G1 E-0.04000 F2100.000
G1 Z0.600 F10800.000
G1 X79.571 Y122.828
G1 Z0.200
G1 E0.80000 F2100.000
G1 F1200.000
G1 X75.384 Y122.828 E0.13126
G1 X73.771 Y122.512 E0.05154
G1 X73.384 Y122.329 E0.01344
G1 X72.468 Y121.739 E0.03414
G1 X71.775 Y121.054 E0.03059
G1 X71.164 Y120.101 E0.03547
G1 X70.983 Y119.715 E0.01339
G1 X70.672 Y118.124 E0.05081
G1 X70.673 Y91.867 E0.82329
G1 X70.970 Y90.331 E0.04906
G1 X71.732 Y89.009 E0.04781
G1 X72.446 Y88.275 E0.03210
G1 X73.399 Y87.664 E0.03550
G1 X73.785 Y87.483 E0.01339
G1 X75.376 Y87.172 E0.05080
G1 X79.569 Y87.172 E0.13147
G1 X79.581 Y87.549 F10800.000
G1 F1200.000
G1 X154.054 Y87.549 E2.33506
G1 X154.077 Y86.354 E0.03749
G1 X154.281 Y85.348 E0.03218
G1 X154.504 Y84.810 E0.01825
G1 X155.158 Y83.826 E0.03704
G1 X155.477 Y83.484 E0.01467
G1 X156.509 Y82.781 E0.03915
G1 X156.805 Y82.664 E0.00996
;WIPE_START
G1 F8640.000
G1 X156.509 Y82.781 E-0.07335
G1 X155.477 Y83.484 E-0.28834
G1 X155.158 Y83.826 E-0.10807
G1 X154.504 Y84.810 E-0.27274
G1 X154.475 Y84.880 E-0.01751
;WIPE_END
G1 E-0.04000 F2100.000
G1 Z0.600 F10800.000
G1 X156.813 Y127.336
G1 Z0.200
G1 E0.80000 F2100.000
G1 F1200.000
G1 X156.446 Y127.181 E0.01252
G1 X155.444 Y126.484 E0.03826
G1 X155.128 Y126.140 E0.01465
G1 X154.491 Y125.165 E0.03651
G1 X154.274 Y124.630 E0.01811
G1 X154.074 Y123.617 E0.03234
G1 X154.053 Y122.451 E0.03658
G1 X79.583 Y122.451 E2.33496
;WIPE_START
M73 P3 R64
M73 Q3 S64
G1 F8640.000
G1 X82.874 Y122.451 E-0.76000
;WIPE_END
G1 E-0.04000 F2100.000
G1 Z0.600 F10800.000
G1 X154.425 Y122.074
G1 Z0.200
G1 E0.80000 F2100.000
G1 F1200.000
G1 X75.420 Y122.074 E2.47714
G1 X74.046 Y121.808 E0.04389
G1 X73.769 Y121.680 E0.00955
G1 X72.909 Y121.126 E0.03208
G1 X72.387 Y120.611 E0.02301
G1 X71.814 Y119.717 E0.03331
G1 X71.687 Y119.441 E0.00951
G1 X71.426 Y118.089 E0.04318
G1 X71.427 Y91.902 E0.82106
G1 X71.677 Y90.594 E0.04175
G1 X72.360 Y89.429 E0.04234
G1 X72.889 Y88.887 E0.02374
G1 X73.783 Y88.314 E0.03332
G1 X74.059 Y88.187 E0.00952
G1 X75.411 Y87.926 E0.04318
G1 X154.425 Y87.926 E2.47743
G1 X154.451 Y86.411 E0.04750
G1 X154.647 Y85.440 E0.03105
G1 X154.828 Y85.004 E0.01483
G1 X155.464 Y84.047 E0.03600
G1 X155.708 Y83.784 E0.01126
G1 X156.704 Y83.104 E0.03780
G1 X157.328 Y82.860 E0.02101
G1 X158.415 Y82.676 E0.03459
G1 X174.597 Y82.677 E0.50736
G1 X175.788 Y82.892 E0.03795
G1 X176.090 Y82.997 E0.01003
G1 X177.348 Y83.835 E0.04737
G1 X177.565 Y84.080 E0.01027
G1 X178.262 Y85.181 E0.04088
G1 X178.364 Y85.480 E0.00988
G1 X178.574 Y86.662 E0.03765
G1 X178.574 Y123.330 E1.14969
G1 X178.308 Y124.704 E0.04389
G1 X178.180 Y124.981 E0.00955
G1 X177.627 Y125.841 E0.03208
G1 X177.111 Y126.363 E0.02301
G1 X176.217 Y126.936 E0.03331
G1 X175.941 Y127.063 E0.00952
G1 X174.589 Y127.324 E0.04318
G1 X158.424 Y127.324 E0.50682
G1 X157.282 Y127.130 E0.03634
G1 X156.645 Y126.860 E0.02168
G1 X155.677 Y126.187 E0.03698
G1 X155.436 Y125.921 E0.01124
G1 X154.817 Y124.974 E0.03548
G1 X154.640 Y124.539 E0.01471
G1 X154.448 Y123.561 E0.03124
