; generated by PrusaSlicer 2.3.1+x64 on 2021-05-20 at 18:39:35 UTC

; 

; external perimeters extrusion width = 0.45mm
; perimeters extrusion width = 0.45mm
; infill extrusion width = 0.45mm
; solid infill extrusion width = 0.45mm
; top infill extrusion width = 0.40mm
; first layer extrusion width = 0.42mm

M73 P0 R85
M73 Q0 S85
M201 X1000 Y1000 Z200 E5000 ; sets maximum accelerations, mm/sec^2
M203 X200 Y200 Z12 E120 ; sets maximum feedrates, mm/sec
M204 P1250 R1250 T1250 ; sets acceleration (P, T) and retract acceleration (R), mm/sec^2
M205 X8.00 Y8.00 Z0.40 E4.50 ; sets the jerk limits, mm/sec
M205 S0 T0 ; sets the minimum extruding and travel feed rate, mm/sec
M107
;TYPE:Custom
M862.3 P "MK3S" ; printer model check
M862.1 P0.4 ; nozzle diameter check
M115 U3.9.3 ; tell printer latest fw version
G90 ; use absolute coordinates
M83 ; extruder relative mode
M104 S215 ; set extruder temp
M140 S60 ; set bed temp
M190 S60 ; wait for bed temp
M109 S215 ; wait for extruder temp
G28 W ; home all without mesh bed level
G80 ; mesh bed leveling
G1 Y-3.0 F1000.0 ; go outside print area
G92 E0.0
G1 X60.0 E9.0 F1000.0 ; intro line
G1 X100.0 E12.5 F1000.0 ; intro line
G92 E0.0
M221 S95

; Don't change E values below. Excessive value can damage the printer.
M907 E430 ; set extruder motor current
G21 ; set units to millimeters
G90 ; use absolute coordinates
M83 ; use relative distances for extrusion
M900 K0.05 ; Filament gcode LA 1.5
M900 K30 ; Filament gcode LA 1.0
;LAYER_CHANGE
;Z:0.2
;HEIGHT:0.2
;BEFORE_LAYER_CHANGE
G92 E0.0
;0.2


G1 E-0.80000 F2100.000
G1 Z0.400 F10800.000
;AFTER_LAYER_CHANGE
;0.2
G1 X86.448 Y88.321
G1 Z0.200
G1 E0.80000 F2100.000
M204 S1000
;TYPE:Skirt
;WIDTH:0.42
G1 F1200.000
G1 X87.208 Y87.809 E0.02872
G1 X88.124 Y87.623 E0.02931
G1 X165.004 Y87.623 E2.41051
G1 X165.899 Y87.799 E0.02860
G1 X166.661 Y88.300 E0.02860
G1 X167.178 Y89.048 E0.02849
G1 X167.376 Y89.938 E0.02860
G1 X167.375 Y120.107 E0.94592
G1 X167.251 Y120.763 E0.02095
G1 X166.950 Y121.360 E0.02095
G1 X166.494 Y121.849 E0.02095
G1 X165.921 Y122.191 E0.02095
G1 X165.005 Y122.377 E0.02931
G1 X88.093 Y122.377 E2.41153
G1 X87.418 Y122.268 E0.02142
G1 X86.799 Y121.969 E0.02154
G1 X86.292 Y121.506 E0.02154
G1 X85.939 Y120.921 E0.02142
G1 X83.466 Y113.158 E0.25546
G1 X82.625 Y104.856 E0.26164
G1 X83.517 Y96.616 E0.25985
G1 X85.938 Y89.082 E0.24813
G1 X86.415 Y88.371 E0.02684
;WIPE_START
G1 F8640.000
G1 X87.208 Y87.809 E-0.22440
G1 X88.124 Y87.623 E-0.21582
G1 X89.509 Y87.623 E-0.31978
;WIPE_END
G1 E-0.04000 F2100.000
G1 Z0.600 F10800.000
G1 X84.793 Y86.645
G1 Z0.200
G1 E0.80000 F2100.000
G1 F1200.000
G1 X84.921 Y86.529 E0.00541
G1 X86.249 Y85.654 E0.04985
G1 X87.711 Y85.287 E0.04728
G1 X165.486 Y85.290 E2.43859
G1 X166.435 Y85.474 E0.03029
G1 X167.343 Y85.865 E0.03101
G1 X168.562 Y86.888 E0.04990
G1 X169.353 Y88.106 E0.04551
M73 P0 R84
G1 X169.713 Y89.489 E0.04481
G1 X169.713 Y120.510 E0.97265
G1 X169.405 Y121.768 E0.04061
G1 X168.834 Y122.782 E0.03649
G1 X167.949 Y123.711 E0.04024
G1 X166.861 Y124.367 E0.03981
G1 X165.456 Y124.713 E0.04539
G1 X87.678 Y124.713 E2.43869
G1 X86.335 Y124.379 E0.04339
G1 X85.074 Y123.611 E0.04628
G1 X84.810 Y123.361 E0.01139
G1 X83.783 Y121.883 E0.05643
G1 X81.144 Y113.457 E0.27685
G1 X80.289 Y104.674 E0.27670
G1 X81.255 Y96.012 E0.27327
G1 X83.788 Y88.106 E0.26031
G1 X84.759 Y86.694 E0.05372
G1 X85.065 Y86.906 F10800.000
G1 F1200.000
G1 X85.142 Y86.834 E0.00330
G1 X86.429 Y85.987 E0.04830
G1 X87.734 Y85.664 E0.04215
G1 X165.467 Y85.667 E2.43729
G1 X166.341 Y85.840 E0.02791
G1 X167.166 Y86.199 E0.02823
G1 X168.297 Y87.158 E0.04647
G1 X168.996 Y88.232 E0.04018
G1 X169.336 Y89.513 E0.04157
G1 X169.336 Y120.486 E0.97114
G1 X169.046 Y121.651 E0.03762
G1 X168.518 Y122.574 E0.03336
G1 X167.732 Y123.402 E0.03577
G1 X166.691 Y124.029 E0.03811
G1 X165.434 Y124.336 E0.04060
G1 X87.701 Y124.336 E2.43724
G1 X86.456 Y124.021 E0.04028
G1 X85.289 Y123.300 E0.04300
G1 X85.108 Y123.129 E0.00783
G1 X84.134 Y121.742 E0.05312
G1 X81.517 Y113.401 E0.27409
G1 X80.666 Y104.696 E0.27425
G1 X81.620 Y96.109 E0.27089
G1 X84.139 Y88.248 E0.25884
G1 X85.031 Y86.955 E0.04924
G1 X85.338 Y87.169 F10800.000
G1 F1200.000
G1 X86.609 Y86.320 E0.04791
G1 X87.756 Y86.041 E0.03701
G1 X165.448 Y86.044 E2.43599
G1 X166.246 Y86.205 E0.02550
G1 X166.988 Y86.533 E0.02545
G1 X168.030 Y87.426 E0.04302
G1 X168.663 Y88.410 E0.03669
G1 X168.959 Y89.538 E0.03655
G1 X168.959 Y120.462 E0.96963
G1 X168.687 Y121.531 E0.03458
G1 X168.204 Y122.365 E0.03022
G1 X167.478 Y123.122 E0.03287
G1 X166.523 Y123.691 E0.03485
G1 X165.411 Y123.959 E0.03587
G1 X87.726 Y123.959 E2.43578
M73 P1 R84
M73 Q1 S85
G1 X86.580 Y123.663 E0.03712
G1 X85.506 Y122.991 E0.03973
G1 X85.404 Y122.895 E0.00438
G1 X84.485 Y121.601 E0.04977
G1 X81.883 Y113.307 E0.27254
G1 X81.043 Y104.718 E0.27058
G1 X81.984 Y96.206 E0.26851
G1 X84.489 Y88.390 E0.25736
M73 Q1 S84
G1 X85.304 Y87.218 E0.04474
G1 X85.612 Y87.434 F10800.000
G1 F1200.000
G1 X86.733 Y86.678 E0.04241
G1 X87.779 Y86.418 E0.03381
G1 X165.429 Y86.421 E2.43464
G1 X166.148 Y86.570 E0.02304
G1 X166.808 Y86.865 E0.02266
G1 X167.762 Y87.692 E0.03960
G1 X168.306 Y88.537 E0.03149
G1 X168.582 Y89.563 E0.03331
G1 X168.582 Y120.438 E0.96807
G1 X168.329 Y121.410 E0.03149
G1 X167.891 Y122.153 E0.02706
G1 X167.226 Y122.840 E0.02999
G1 X166.357 Y123.351 E0.03159
G1 X165.390 Y123.582 E0.03119
G1 X87.750 Y123.582 E2.43432
G1 X86.705 Y123.306 E0.03390
G1 X85.699 Y122.660 E0.03749
G1 X84.835 Y121.458 E0.04640
G1 X82.256 Y113.251 E0.26975
G1 X81.419 Y104.740 E0.26814
G1 X82.349 Y96.303 E0.26612
G1 X84.839 Y88.532 E0.25585
G1 X85.577 Y87.484 E0.04021
G1 X85.884 Y87.702 F10800.000
G1 F1200.000
G1 X85.906 Y87.670 E0.00122
G1 X86.911 Y87.011 E0.03768
G1 X87.801 Y86.795 E0.02872
G1 X165.410 Y86.798 E2.43335
G1 X166.013 Y86.923 E0.01933
G1 X166.628 Y87.197 E0.02110
G1 X167.492 Y87.957 E0.03609
G1 X167.972 Y88.714 E0.02809
G1 X168.205 Y89.587 E0.02835
G1 X168.205 Y120.413 E0.96651
G1 X167.972 Y121.286 E0.02833
G1 X167.580 Y121.939 E0.02390
G1 X166.975 Y122.558 E0.02713
G1 X166.193 Y123.011 E0.02833
G1 X165.368 Y123.205 E0.02658
G1 X87.776 Y123.205 E2.43284
G1 X86.833 Y122.951 E0.03064
G1 X85.973 Y122.395 E0.03210
G1 X85.186 Y121.315 E0.04190
G1 X82.629 Y113.194 E0.26694
G1 X81.796 Y104.761 E0.26569
G1 X82.714 Y96.400 E0.26373
G1 X85.189 Y88.676 E0.25432
G1 X85.849 Y87.751 E0.03562
G1 X86.190 Y87.921 F10800.000
G1 F1200.000
G1 X87.086 Y87.347 E0.03340
G1 X87.823 Y87.172 E0.02373
G1 X165.389 Y87.176 E2.43204
G1 X165.914 Y87.287 E0.01681
G1 X166.445 Y87.528 E0.01829
G1 X167.222 Y88.221 E0.03263
G1 X167.616 Y88.841 E0.02306
G1 X167.828 Y89.613 E0.02510
G1 X167.828 Y120.387 E0.96489
M73 P1 R83
G1 X167.616 Y121.159 E0.02510
G1 X167.271 Y121.722 E0.02073
G1 X166.726 Y122.274 E0.02430
G1 X166.031 Y122.669 E0.02507
G1 X165.347 Y122.828 E0.02203
G1 X87.802 Y122.828 E2.43136
G1 X86.963 Y122.596 E0.02730
G1 X86.209 Y122.099 E0.02830
G1 X85.536 Y121.173 E0.03591
G1 X83.002 Y113.137 E0.26417
G1 X82.173 Y104.783 E0.26324
G1 X83.079 Y96.497 E0.26134
G1 X85.539 Y88.820 E0.25277
G1 X86.154 Y87.970 E0.03291
G1 X86.708 Y88.470 F10800.000
G1 F1200.000
G1 X87.382 Y88.040 E0.02508
G1 X87.867 Y87.926 E0.01561
G1 X165.346 Y87.930 E2.42929
G1 X165.705 Y88.013 E0.01157
G1 X166.071 Y88.185 E0.01268
G1 X166.676 Y88.743 E0.02580
G1 X166.908 Y89.105 E0.01347
G1 X167.074 Y89.668 E0.01841
G1 X167.074 Y120.332 E0.96144
G1 X166.908 Y120.896 E0.01842
G1 X166.683 Y121.250 E0.01318
G1 X166.232 Y121.701 E0.01999
G1 X165.716 Y121.982 E0.01842
G1 X165.306 Y122.074 E0.01318
G1 X87.857 Y122.074 E2.42834
G1 X87.234 Y121.889 E0.02038
G1 X86.689 Y121.515 E0.02074
G1 X86.237 Y120.888 E0.02422
G1 X83.749 Y113.023 E0.25864
G1 X82.927 Y104.825 E0.25834
G1 X83.809 Y96.691 E0.25653
G1 X86.239 Y89.108 E0.24966
M73 P2 R83
G1 X86.672 Y88.518 E0.02295
G1 X86.944 Y88.766 F10800.000
G1 F1200.000
G1 X87.506 Y88.398 E0.02106
G1 X87.891 Y88.303 E0.01244
G1 X165.324 Y88.307 E2.42786
M73 Q2 S84
G1 X165.562 Y88.362 E0.00767
G1 X165.882 Y88.513 E0.01109
G1 X166.401 Y89.001 E0.02233
G1 X166.556 Y89.242 E0.00898
G1 X166.697 Y89.698 E0.01495
G1 X166.697 Y120.302 E0.95959
G1 X166.556 Y120.758 E0.01496
G1 X166.402 Y120.998 E0.00892
G1 X165.986 Y121.414 E0.01845
G1 X165.564 Y121.636 E0.01496
G1 X165.286 Y121.697 E0.00892
G1 X87.887 Y121.697 E2.42680
G1 X87.376 Y121.539 E0.01676
G1 X86.933 Y121.226 E0.01701
G1 X86.587 Y120.746 E0.01855
G1 X84.122 Y112.966 E0.25588
G1 X83.304 Y104.846 E0.25589
G1 X84.174 Y96.788 E0.25412
G1 X86.589 Y89.252 E0.24812
G1 X86.908 Y88.814 E0.01699
G1 X87.183 Y89.058 F10800.000
G1 F1200.000
G1 X87.634 Y88.754 E0.01707
G1 X87.916 Y88.680 E0.00914
G1 X165.302 Y88.684 E2.42637
M73 Q2 S83
G1 X165.419 Y88.711 E0.00377
G1 X165.692 Y88.840 E0.00947
G1 X166.123 Y89.257 E0.01880
G1 X166.207 Y89.385 E0.00479
G1 X166.320 Y89.729 E0.01136
G1 X166.320 Y120.271 E0.95760
G1 X166.207 Y120.615 E0.01136
G1 X166.122 Y120.744 E0.00484
G1 X165.742 Y121.125 E0.01687
G1 X165.418 Y121.288 E0.01136
G1 X165.267 Y121.320 E0.00484
G1 X87.918 Y121.320 E2.42523
G1 X87.524 Y121.191 E0.01300
G1 X87.180 Y120.940 E0.01334
G1 X86.938 Y120.603 E0.01302
G1 X84.495 Y112.909 E0.25311
G1 X83.681 Y104.867 E0.25344
G1 X84.539 Y96.885 E0.25171
G1 X86.939 Y89.395 E0.24659
G1 X87.148 Y89.107 E0.01116
G1 X87.771 Y89.106 F10800.000
G1 F1200.000
G1 X87.944 Y89.057 E0.00565
G1 X165.282 Y89.064 E2.42486
G1 X165.500 Y89.167 E0.00757
G1 X165.843 Y89.510 E0.01522
G1 X165.943 Y89.764 E0.00856
G1 X165.943 Y120.236 E0.95540
G1 X165.861 Y120.463 E0.00757
G1 X165.500 Y120.833 E0.01622
G1 X165.250 Y120.943 E0.00856
G1 X87.948 Y120.943 E2.42375
G1 X87.722 Y120.869 E0.00744
G1 X87.427 Y120.653 E0.01147
G1 X87.288 Y120.461 E0.00745
G1 X84.861 Y112.813 E0.25156
G1 X84.058 Y104.887 E0.24978
G1 X84.904 Y96.981 E0.24930
G1 X87.289 Y89.538 E0.24506
G1 X87.426 Y89.348 E0.00738
G1 X87.722 Y89.141 E0.01130
G1 X87.921 Y89.453 F10800.000
G1 F1200.000
G1 X87.978 Y89.434 E0.00188
G1 X165.194 Y89.434 E2.42105
G1 X165.263 Y89.463 E0.00235
G1 X165.537 Y89.737 E0.01215
G1 X165.566 Y89.806 E0.00235
G1 X165.566 Y120.194 E0.95278
G1 X165.537 Y120.263 E0.00235
G1 X165.263 Y120.537 E0.01215
G1 X165.194 Y120.566 E0.00235
G1 X87.978 Y120.566 E2.42106
M73 P2 R82
G1 X87.921 Y120.547 E0.00188
G1 X87.673 Y120.366 E0.00960
G1 X87.638 Y120.318 E0.00188
G1 X85.234 Y112.756 E0.24880
G1 X84.435 Y104.908 E0.24734
G1 X85.269 Y97.078 E0.24688
G1 X87.639 Y89.682 E0.24352
G1 X87.674 Y89.633 E0.00188
G1 X87.872 Y89.488 E0.00771
G1 X88.069 Y89.811 F10800.000
G1 F1200.000
G1 X165.078 Y89.811 E2.41456
G1 X165.189 Y89.922 E0.00490
G1 X165.189 Y120.078 E0.94553
G1 X165.078 Y120.189 E0.00490
G1 X88.069 Y120.189 E2.41456
M73 P3 R82
M73 Q3 S83
G1 X87.970 Y120.116 E0.00386
G1 X85.607 Y112.698 E0.24411
G1 X84.813 Y104.928 E0.24489
G1 X85.634 Y97.175 E0.24445
G1 X87.970 Y89.884 E0.24004
G1 X88.021 Y89.847 E0.00197
; printing object xarm_pen_holder.stl id:0 copy 0
;WIPE_START
G1 F8640.000
G1 X91.312 Y89.845 E-0.76000
;WIPE_END
G1 E-0.04000 F2100.000
G1 Z0.600 F10800.000
G1 X100.226 Y96.290
G1 Z0.200
G1 E0.80000 F2100.000
;TYPE:Perimeter
G1 F1200.000
G1 X100.964 Y96.213 E0.02328
G1 X144.034 Y96.213 E1.35040
G1 X144.735 Y96.282 E0.02211
G1 X145.429 Y96.489 E0.02269
G1 X146.086 Y96.836 E0.02331
G1 X146.649 Y97.290 E0.02267
G1 X147.103 Y97.826 E0.02203
G1 X147.484 Y98.506 E0.02443
G1 X147.716 Y99.265 E0.02487
G1 X147.787 Y99.965 E0.02208
G1 X147.787 Y110.033 E0.31568
G1 X147.719 Y110.730 E0.02193
G1 X147.520 Y111.400 E0.02194
G1 X147.146 Y112.110 E0.02516
G1 X146.706 Y112.654 E0.02194
G1 X146.144 Y113.125 E0.02299
G1 X145.495 Y113.483 E0.02325
G1 X144.811 Y113.701 E0.02249
G1 X144.038 Y113.787 E0.02440
G1 X100.967 Y113.787 E1.35047
G1 X100.270 Y113.719 E0.02193
G1 X99.600 Y113.520 E0.02194
G1 X98.890 Y113.146 E0.02516
G1 X98.347 Y112.706 E0.02192
G1 X97.897 Y112.174 E0.02186
G1 X97.516 Y111.494 E0.02443
G1 X97.284 Y110.735 E0.02487
G1 X97.213 Y110.035 E0.02209
G1 X97.214 Y99.937 E0.31661
G1 X97.281 Y99.269 E0.02105
G1 X97.493 Y98.562 E0.02313
G1 X97.830 Y97.922 E0.02269
G1 X98.294 Y97.347 E0.02316
G1 X98.856 Y96.875 E0.02302
G1 X99.506 Y96.517 E0.02327
G1 X100.169 Y96.308 E0.02178
G1 X100.282 Y96.667 F10800.000
;TYPE:External perimeter
G1 F1200.000
G1 X100.984 Y96.590 E0.02214
G1 X144.015 Y96.590 E1.34921
G1 X144.662 Y96.653 E0.02038
G1 X145.285 Y96.840 E0.02040
G1 X145.878 Y97.152 E0.02101
G1 X146.385 Y97.560 E0.02039
G1 X146.792 Y98.042 E0.01977
G1 X147.135 Y98.655 E0.02204
G1 X147.345 Y99.339 E0.02244
G1 X147.410 Y99.984 E0.02032
G1 X147.410 Y110.015 E0.31451
G1 X147.347 Y110.657 E0.02022
G1 X147.169 Y111.258 E0.01964
G1 X146.830 Y111.902 E0.02283
G1 X146.436 Y112.388 E0.01964
G1 X145.930 Y112.813 E0.02070
G1 X145.345 Y113.135 E0.02093
G1 X144.732 Y113.330 E0.02017
G1 X144.017 Y113.410 E0.02257
G1 X100.985 Y113.410 E1.34924
G1 X100.343 Y113.347 E0.02022
G1 X99.742 Y113.169 E0.01964
G1 X99.098 Y112.830 E0.02283
G1 X98.612 Y112.436 E0.01963
G1 X98.208 Y111.958 E0.01961
G1 X97.865 Y111.345 E0.02204
G1 X97.655 Y110.661 E0.02244
G1 X97.590 Y110.016 E0.02032
G1 X97.591 Y99.956 E0.31543
G1 X97.653 Y99.342 E0.01932
G1 X97.844 Y98.706 E0.02085
G1 X98.147 Y98.130 E0.02040
G1 X98.564 Y97.612 E0.02086
G1 X99.070 Y97.187 E0.02071
G1 X99.655 Y96.865 E0.02094
G1 X100.225 Y96.685 E0.01873
G1 X100.406 Y96.287 F10800.000
;WIPE_START
G1 F8640.000
G1 X100.984 Y96.590 E-0.17665
G1 X103.510 Y96.590 E-0.58335
;WIPE_END
G1 E-0.04000 F2100.000
G1 Z0.600 F10800.000
G1 X94.193 Y102.444
G1 Z0.200
G1 E0.80000 F2100.000
;TYPE:Perimeter
G1 F1200.000
G1 X94.636 Y103.127 E0.02551
G1 X94.941 Y103.905 E0.02622
G1 X95.081 Y104.715 E0.02577
G1 X95.054 Y105.545 E0.02604
G1 X94.868 Y106.330 E0.02529
G1 X94.543 Y107.043 E0.02457
G1 X94.116 Y107.649 E0.02324
G1 X93.556 Y108.193 E0.02449
G1 X92.873 Y108.636 E0.02551
G1 X92.095 Y108.941 E0.02622
G1 X91.285 Y109.081 E0.02577
G1 X90.455 Y109.054 E0.02604
G1 X89.670 Y108.868 E0.02529
G1 X88.952 Y108.541 E0.02473
G1 X88.351 Y108.116 E0.02310
G1 X87.807 Y107.556 E0.02448
G1 X87.364 Y106.873 E0.02551
G1 X87.059 Y106.095 E0.02622
G1 X86.919 Y105.285 E0.02577
G1 X86.946 Y104.455 E0.02604
G1 X87.132 Y103.670 E0.02529
G1 X87.457 Y102.957 E0.02457
G1 X87.884 Y102.351 E0.02324
G1 X88.444 Y101.807 E0.02449
G1 X89.127 Y101.364 E0.02551
G1 X89.905 Y101.059 E0.02622
G1 X90.715 Y100.919 E0.02577
G1 X91.545 Y100.946 E0.02604
G1 X92.330 Y101.132 E0.02529
G1 X93.043 Y101.457 E0.02457
G1 X93.649 Y101.884 E0.02324
G1 X94.152 Y102.401 E0.02261
G1 X93.881 Y102.664 F10800.000
;TYPE:External perimeter
G1 F1200.000
G1 X94.299 Y103.300 E0.02386
G1 X94.576 Y104.007 E0.02381
G1 X94.703 Y104.741 E0.02336
G1 X94.678 Y105.495 E0.02365
G1 X94.509 Y106.207 E0.02294
G1 X94.214 Y106.855 E0.02231
G1 X93.828 Y107.403 E0.02104
G1 X93.319 Y107.897 E0.02223
G1 X92.700 Y108.299 E0.02315
G1 X91.993 Y108.576 E0.02381
G1 X91.259 Y108.703 E0.02336
G1 X90.505 Y108.678 E0.02365
G1 X89.793 Y108.509 E0.02294
G1 X89.141 Y108.212 E0.02246
G1 X88.597 Y107.828 E0.02089
G1 X88.103 Y107.319 E0.02222
G1 X87.701 Y106.700 E0.02315
G1 X87.424 Y105.993 E0.02381
G1 X87.297 Y105.259 E0.02336
G1 X87.322 Y104.505 E0.02365
G1 X87.491 Y103.793 E0.02294
G1 X87.786 Y103.145 E0.02231
G1 X88.172 Y102.597 E0.02104
G1 X88.681 Y102.103 E0.02223
G1 X89.300 Y101.701 E0.02315
G1 X90.007 Y101.424 E0.02381
G1 X90.741 Y101.297 E0.02336
G1 X91.495 Y101.322 E0.02365
G1 X92.207 Y101.491 E0.02294
G1 X92.855 Y101.786 E0.02231
G1 X93.403 Y102.172 E0.02104
G1 X93.839 Y102.621 E0.01962
G1 X94.277 Y102.604 F10800.000
;WIPE_START
G1 F8640.000
G1 X94.299 Y103.300 E-0.18934
G1 X94.576 Y104.007 E-0.17536
G1 X94.703 Y104.741 E-0.17205
G1 X94.678 Y105.495 E-0.17414
G1 X94.629 Y105.702 E-0.04911
;WIPE_END
G1 E-0.04000 F2100.000
G1 Z0.600 F10800.000
G1 X149.912 Y105.136
G1 Z0.200
G1 E0.80000 F2100.000
;TYPE:Perimeter
G1 F1200.000
G1 X149.969 Y104.302 E0.02622
G1 X150.190 Y103.510 E0.02577
G1 X150.570 Y102.771 E0.02604
G1 X151.078 Y102.138 E0.02544
G1 X151.673 Y101.636 E0.02442
G1 X152.319 Y101.272 E0.02324
M73 Q3 S82
G1 X153.062 Y101.019 E0.02463
G1 X153.819 Y100.916 E0.02395
