; generated by PrusaSlicer 2.2.0+ on 2021-02-13 at 18:15:55 UTC

; 

; external perimeters extrusion width = 0.45mm
; perimeters extrusion width = 0.45mm
; infill extrusion width = 0.45mm
; solid infill extrusion width = 0.45mm
; top infill extrusion width = 0.40mm
; first layer extrusion width = 0.42mm

M73 P0 R118
M73 Q0 S118
M201 X1000 Y1000 Z200 E5000 ; sets maximum accelerations, mm/sec^2
M203 X200 Y200 Z12 E120 ; sets maximum feedrates, mm/sec
M204 P1250 R1250 T1250 ; sets acceleration (P, T) and retract acceleration (R), mm/sec^2
M205 X8.00 Y8.00 Z0.40 E4.50 ; sets the jerk limits, mm/sec
M205 S0 T0 ; sets the minimum extruding and travel feed rate, mm/sec
M107
M862.3 P "MK3S" ; printer model check
M862.1 P0.4 ; nozzle diameter check
M115 U3.9.1 ; tell printer latest fw version
G90 ; use absolute coordinates
M83 ; extruder relative mode
M104 S215 ; set extruder temp
M140 S60 ; set bed temp
M190 S60 ; wait for bed temp
M109 S215 ; wait for extruder temp
G28 W ; home all without mesh bed level
G80 ; mesh bed leveling
G1 Y-3.0 F1000.0 ; go outside print area
G92 E0.0
G1 X60.0 E9.0 F1000.0 ; intro line
M73 Q0 S118
M73 P0 R117
G1 X100.0 E12.5 F1000.0 ; intro line
G92 E0.0
M221 S95

; Don't change E values below. Excessive value can damage the printer.
M907 E430 ; set extruder motor current
G21 ; set units to millimeters
G90 ; use absolute coordinates
M83 ; use relative distances for extrusion
M900 K0.05 ; Filament gcode LA 1.5
M900 K30 ; Filament gcode LA 1.0
;BEFORE_LAYER_CHANGE
G92 E0.0
;0.2


G1 E-0.80000 F2100.00000
G1 Z0.600 F10800.000
;AFTER_LAYER_CHANGE
;0.2
G1 X86.648 Y94.854
G1 Z0.200
G1 E0.80000 F2100.00000
M204 S1000
G1 F1200.000
G1 X87.468 Y93.493 E0.04980
G1 X87.963 Y92.898 E0.02429
G1 X88.759 Y92.090 E0.03555
G1 X89.386 Y91.596 E0.02505
G1 X90.718 Y90.787 E0.04886
G1 X92.120 Y90.268 E0.04685
G1 X92.893 Y90.078 E0.02496
G1 X94.492 Y89.923 E0.05038
G1 X155.500 Y89.923 E1.91285
G1 X157.367 Y90.126 E0.05890
G1 X159.190 Y90.743 E0.06033
G1 X160.887 Y91.788 E0.06249
G1 X162.233 Y93.104 E0.05902
G1 X163.349 Y94.843 E0.06479
G1 X163.960 Y96.547 E0.05677
G1 X164.305 Y98.270 E0.05510
G1 X164.656 Y100.836 E0.08120
G1 X164.869 Y104.213 E0.10609
G1 X164.810 Y107.303 E0.09690
G1 X164.511 Y110.384 E0.09707
G1 X163.953 Y113.478 E0.09855
G1 X162.776 Y116.105 E0.09027
G1 X162.231 Y116.896 E0.03012
G1 X161.703 Y117.413 E0.02316
G1 X160.072 Y118.724 E0.06563
G1 X159.482 Y119.110 E0.02210
G1 X158.782 Y119.418 E0.02396
G1 X155.519 Y120.077 E0.10439
G1 X94.314 Y120.069 E1.91903
G1 X91.512 Y119.510 E0.08959
G1 X90.931 Y119.309 E0.01928
G1 X90.005 Y118.767 E0.03364
G1 X88.392 Y117.506 E0.06420
G1 X87.802 Y116.938 E0.02567
G1 X87.332 Y116.283 E0.02527
G1 X86.065 Y113.536 E0.09486
G1 X85.437 Y109.974 E0.11342
G1 X85.191 Y107.323 E0.08347
G1 X85.129 Y104.772 E0.08000
G1 X85.313 Y101.125 E0.11448
G1 X85.692 Y98.287 E0.08979
G1 X85.999 Y96.701 E0.05065
G1 X86.628 Y94.910 E0.05951
G1 F8640.000
G1 X87.468 Y93.493 E-0.38035
G1 X87.963 Y92.898 E-0.17887
G1 X88.573 Y92.278 E-0.20078
G1 E-0.04000 F2100.00000
G1 Z0.800 F10800.000
G1 X152.482 Y104.227
G1 Z0.200
G1 E0.80000 F2100.00000
G1 F1200.000
G1 X152.722 Y103.430 E0.02609
G1 X153.108 Y102.713 E0.02554
G1 X153.606 Y102.110 E0.02452
G1 X154.176 Y101.634 E0.02330
G1 X154.858 Y101.253 E0.02448
G1 X155.623 Y101.004 E0.02524
G1 X156.439 Y100.909 E0.02575
G1 X157.273 Y100.982 E0.02623
G1 X158.070 Y101.222 E0.02609
G1 X158.787 Y101.608 E0.02554
G1 X159.390 Y102.106 E0.02452
G1 X159.866 Y102.676 E0.02330
G1 X160.247 Y103.358 E0.02448
G1 X160.496 Y104.123 E0.02523
G1 X160.591 Y104.943 E0.02587
G1 X160.518 Y105.773 E0.02613
G1 X160.278 Y106.570 E0.02609
G1 X159.892 Y107.287 E0.02554
G1 X159.394 Y107.890 E0.02452
G1 X158.824 Y108.366 E0.02330
G1 X158.142 Y108.747 E0.02448
G1 X157.377 Y108.996 E0.02523
G1 X156.557 Y109.091 E0.02587
G1 X155.727 Y109.018 E0.02613
G1 X154.930 Y108.778 E0.02609
G1 X154.213 Y108.392 E0.02554
G1 X153.610 Y107.894 E0.02452
G1 X153.134 Y107.324 E0.02330
G1 X152.753 Y106.642 E0.02448
G1 X152.504 Y105.877 E0.02523
G1 X152.409 Y105.057 E0.02587
G1 X152.477 Y104.287 E0.02424
G1 X152.853 Y104.320 F10800.000
G1 F1200.000
G1 X153.072 Y103.575 E0.02434
G1 X153.423 Y102.924 E0.02318
G1 X153.874 Y102.377 E0.02226
G1 X154.391 Y101.946 E0.02109
G1 X155.010 Y101.600 E0.02223
G1 X155.704 Y101.374 E0.02290
G1 X156.447 Y101.288 E0.02344
G1 X157.201 Y101.355 E0.02375
G1 X157.925 Y101.572 E0.02368
G1 X158.576 Y101.923 E0.02318
G1 X159.123 Y102.374 E0.02226
G1 X159.554 Y102.891 E0.02109
G1 X159.900 Y103.510 E0.02223
G1 X160.126 Y104.204 E0.02289
G1 X160.212 Y104.948 E0.02348
G1 X160.145 Y105.701 E0.02371
G1 X159.928 Y106.425 E0.02368
G1 X159.577 Y107.076 E0.02318
G1 X159.126 Y107.623 E0.02226
G1 X158.609 Y108.054 E0.02109
G1 X157.990 Y108.400 E0.02223
G1 X157.296 Y108.626 E0.02289
G1 X156.552 Y108.712 E0.02348
G1 X155.799 Y108.645 E0.02371
G1 X155.075 Y108.428 E0.02368
G1 X154.424 Y108.077 E0.02318
G1 X153.877 Y107.626 E0.02226
G1 X153.446 Y107.109 E0.02109
G1 X153.100 Y106.490 E0.02223
G1 X152.874 Y105.796 E0.02289
G1 X152.788 Y105.052 E0.02348
G1 X152.847 Y104.380 E0.02116
G1 X152.549 Y104.060 F10800.000
G1 F8640.000
G1 X153.072 Y103.575 E-0.19286
G1 X153.423 Y102.924 E-0.17073
G1 X153.874 Y102.377 E-0.16393
G1 X154.391 Y101.946 E-0.15534
G1 X154.683 Y101.783 E-0.07715
G1 E-0.04000 F2100.00000
G1 Z0.800 F10800.000
G1 X97.586 Y104.801
G1 Z0.200
G1 E0.80000 F2100.00000
G1 F1200.000
G1 X97.545 Y105.614 E0.02554
G1 X97.353 Y106.373 E0.02452
G1 X97.041 Y107.047 E0.02330
G1 X96.588 Y107.683 E0.02448
G1 X96.004 Y108.236 E0.02523
G1 X95.304 Y108.672 E0.02587
G1 X94.522 Y108.962 E0.02613
G1 X93.699 Y109.086 E0.02609
G1 X92.886 Y109.045 E0.02554
G1 X92.127 Y108.853 E0.02452
G1 X91.453 Y108.541 E0.02330
G1 X90.817 Y108.088 E0.02448
G1 X90.264 Y107.504 E0.02523
G1 X89.828 Y106.804 E0.02587
G1 X89.538 Y106.022 E0.02613
G1 X89.414 Y105.199 E0.02609
G1 X89.455 Y104.386 E0.02554
G1 X89.647 Y103.627 E0.02452
G1 X89.959 Y102.953 E0.02330
G1 X90.412 Y102.317 E0.02448
G1 X90.996 Y101.764 E0.02523
G1 X91.696 Y101.328 E0.02587
G1 X92.478 Y101.038 E0.02613
G1 X93.298 Y100.914 E0.02601
G1 X94.114 Y100.955 E0.02562
G1 X94.873 Y101.147 E0.02452
G1 X95.547 Y101.459 E0.02330
G1 X96.183 Y101.912 E0.02448
G1 X96.736 Y102.496 E0.02523
G1 X97.172 Y103.196 E0.02587
G1 X97.462 Y103.978 E0.02613
G1 X97.577 Y104.741 E0.02421
G1 X97.205 Y104.798 F10800.000
G1 F1200.000
G1 X97.170 Y105.558 E0.02385
G1 X96.996 Y106.246 E0.02226
G1 X96.714 Y106.857 E0.02109
G1 X96.303 Y107.434 E0.02223
G1 X95.772 Y107.936 E0.02289
G1 X95.137 Y108.332 E0.02348
G1 X94.427 Y108.595 E0.02371
G1 X93.681 Y108.708 E0.02368
G1 X92.942 Y108.670 E0.02318
G1 X92.254 Y108.496 E0.02226
G1 X91.643 Y108.214 E0.02109
G1 X91.066 Y107.803 E0.02222
G1 X90.564 Y107.272 E0.02289
G1 X90.168 Y106.637 E0.02348
G1 X89.905 Y105.927 E0.02371
G1 X89.792 Y105.181 E0.02368
G1 X89.830 Y104.442 E0.02318
G1 X90.004 Y103.754 E0.02226
G1 X90.286 Y103.143 E0.02109
G1 X90.697 Y102.566 E0.02223
G1 X91.228 Y102.064 E0.02289
G1 X91.863 Y101.668 E0.02348
G1 X92.573 Y101.405 E0.02371
G1 X93.319 Y101.292 E0.02366
G1 X94.058 Y101.330 E0.02321
G1 X94.746 Y101.504 E0.02226
G1 X95.357 Y101.786 E0.02109
G1 X95.934 Y102.197 E0.02223
G1 X96.436 Y102.728 E0.02289
G1 X96.832 Y103.363 E0.02348
G1 X97.095 Y104.073 E0.02371
G1 X97.196 Y104.739 E0.02112
G1 X97.561 Y104.979 F10800.000
G1 F8640.000
G1 X97.170 Y105.558 E-0.18927
G1 X96.996 Y106.246 E-0.16393
G1 X96.714 Y106.857 E-0.15534
G1 X96.303 Y107.434 E-0.16367
G1 X96.026 Y107.695 E-0.08779
G1 E-0.04000 F2100.00000
G1 Z0.800 F10800.000
G1 X90.176 Y114.830
G1 Z0.200
G1 E0.80000 F2100.00000
G1 F1200.000
G1 X89.071 Y112.526 E0.08012
G1 X88.607 Y109.828 E0.08585
G1 X88.350 Y107.134 E0.08486
G1 X88.294 Y104.426 E0.08492
G1 X88.460 Y101.460 E0.09312
G1 X88.819 Y98.776 E0.08492
G1 X89.063 Y97.498 E0.04081
G1 X89.464 Y96.304 E0.03948
G1 X90.088 Y95.277 E0.03767
G1 X90.987 Y94.347 E0.04055
G1 X92.096 Y93.640 E0.04127
G1 X93.250 Y93.236 E0.03831
G1 X94.549 Y93.087 E0.04100
G1 X155.454 Y93.087 E1.90964
G1 X156.676 Y93.218 E0.03855
G1 X157.864 Y93.621 E0.03931
G1 X158.938 Y94.285 E0.03962
G1 X159.852 Y95.198 E0.04048
G1 X160.515 Y96.261 E0.03928
G1 X160.929 Y97.462 E0.03986
G1 X161.181 Y98.776 E0.04194
G1 X161.553 Y101.584 E0.08883
G1 X161.705 Y104.287 E0.08488
G1 X161.651 Y107.124 E0.08897
G1 X161.394 Y109.819 E0.08486
G1 X160.929 Y112.526 E0.08613
G1 X159.861 Y114.772 E0.07798
G1 X157.911 Y116.351 E0.07867
G1 X155.408 Y116.913 E0.08041
G1 X94.585 Y116.913 E1.90707
G1 X92.150 Y116.372 E0.07821
G1 X90.224 Y114.867 E0.07666
G1 X89.865 Y115.052 F10800.000
G1 F1200.000
G1 X88.709 Y112.642 E0.08383
G1 X88.233 Y109.878 E0.08794
G1 X87.973 Y107.155 E0.08574
G1 X87.916 Y104.419 E0.08581
G1 X88.084 Y101.425 E0.09403
G1 X88.446 Y98.716 E0.08570
G1 X88.697 Y97.402 E0.04194
G1 X89.120 Y96.144 E0.04160
G1 X89.788 Y95.046 E0.04030
G1 X90.746 Y94.053 E0.04326
G1 X91.931 Y93.298 E0.04403
G1 X93.165 Y92.866 E0.04100
G1 X94.527 Y92.710 E0.04300
G1 X155.474 Y92.710 E1.91095
G1 X156.758 Y92.847 E0.04049
G1 X158.025 Y93.278 E0.04196
G1 X159.174 Y93.988 E0.04233
G1 X160.149 Y94.961 E0.04321
G1 X160.858 Y96.097 E0.04198
G1 X161.295 Y97.365 E0.04204
G1 X161.554 Y98.716 E0.04312
G1 X161.928 Y101.549 E0.08961
G1 X162.083 Y104.280 E0.08577
G1 X162.028 Y107.146 E0.08987
G1 X161.768 Y109.869 E0.08575
G1 X161.292 Y112.641 E0.08820
G1 X160.165 Y115.012 E0.08230
G1 X158.059 Y116.704 E0.08470
G1 X155.450 Y117.290 E0.08384
G1 X94.544 Y117.290 E1.90968
G1 X91.985 Y116.722 E0.08218
G1 X89.905 Y115.097 E0.08277
G1 X90.011 Y114.680 F10800.000
G1 F8640.000
G1 X88.709 Y112.642 E-0.63061
G1 X88.614 Y112.089 E-0.12939
G1 E-0.04000 F2100.00000
G1 Z0.800 F10800.000
G1 X89.550 Y113.263
G1 Z0.200
G1 E0.80000 F2100.00000
G1 F1200.000
G1 X92.432 Y116.145 E0.12853
G1 X93.122 Y116.298 E0.02227
G1 X89.418 Y112.594 E0.16520
G1 X89.343 Y112.439 E0.00542
G1 X89.249 Y111.889 E0.01761
G1 X93.811 Y116.451 E0.20349
G1 X94.501 Y116.604 E0.02227
G1 X89.137 Y111.241 E0.23921
G1 X89.026 Y110.593 E0.02073
G1 X95.063 Y116.630 E0.26925
G1 X95.599 Y116.630 E0.01692
G1 X88.914 Y109.945 E0.29815
G1 X88.844 Y109.339 E0.01924
G1 X96.135 Y116.630 E0.32518
G1 X96.672 Y116.630 E0.01692
G1 X88.788 Y108.746 E0.35163
G1 X88.731 Y108.153 E0.01879
G1 X97.208 Y116.630 E0.37808
G1 X97.745 Y116.630 E0.01692
G1 X88.674 Y107.560 E0.40453
G1 X88.629 Y106.979 E0.01840
G1 X98.451 Y116.800 E0.43803
G1 F8640.000
G1 X96.123 Y114.472 E-0.76000
G1 E-0.04000 F2100.00000
G1 Z0.800 F10800.000
G1 X110.787 Y116.800
G1 Z0.200
G1 E0.80000 F2100.00000
G1 F1200.000
G1 X97.644 Y103.657 E0.58618
G1 X97.737 Y103.907 E0.00841
G1 X97.805 Y104.353 E0.01424
G1 X110.081 Y116.630 E0.54754
G1 X109.545 Y116.630 E0.01692
G1 X97.862 Y104.947 E0.52106
G1 X97.836 Y105.457 E0.01611
G1 X109.008 Y116.630 E0.49830
G1 X108.472 Y116.630 E0.01692
G1 X97.760 Y105.918 E0.47778
G1 X97.652 Y106.346 E0.01393
G1 X107.936 Y116.630 E0.45867
G1 X107.399 Y116.630 E0.01692
G1 X97.500 Y106.730 E0.44153
G1 X97.330 Y107.097 E0.01274
G1 X106.863 Y116.630 E0.42518
G1 X106.327 Y116.630 E0.01692
G1 X97.120 Y107.424 E0.41061
G1 X96.897 Y107.737 E0.01213
G1 X105.790 Y116.630 E0.39664
G1 X105.254 Y116.630 E0.01692
G1 X96.644 Y108.020 E0.38402
G1 X96.368 Y108.280 E0.01197
G1 X104.717 Y116.630 E0.37240
G1 X104.181 Y116.630 E0.01692
G1 X96.075 Y108.524 E0.36152
G1 X95.745 Y108.730 E0.01228
G1 X103.645 Y116.630 E0.35233
G1 X103.108 Y116.630 E0.01692
G1 X95.412 Y108.934 E0.34326
G1 X95.020 Y109.079 E0.01316
G1 X102.572 Y116.630 E0.33680
G1 X102.036 Y116.630 E0.01692
G1 X94.629 Y109.224 E0.33033
G1 X94.170 Y109.301 E0.01468
G1 X101.499 Y116.630 E0.32688
G1 X100.963 Y116.630 E0.01692
G1 X93.702 Y109.370 E0.32382
G1 X93.137 Y109.341 E0.01785
G1 X100.426 Y116.630 E0.32511
M73 Q0 S117
G1 X99.890 Y116.630 E0.01692
G1 X92.498 Y109.239 E0.32966
G1 X92.033 Y109.121 E0.01515
G1 X91.683 Y108.959 E0.01215
G1 X99.354 Y116.630 E0.34212
M73 P0 R116
G1 X98.817 Y116.630 E0.01692
G1 X88.618 Y106.431 E0.45489
G1 X88.607 Y105.883 E0.01728
G1 X89.526 Y106.802 E0.04098
G1 X89.263 Y106.093 E0.02384
G1 X89.247 Y105.987 E0.00338
G1 X88.595 Y105.335 E0.02907
G1 X88.584 Y104.788 E0.01728
G1 X89.151 Y105.355 E0.02530
G1 X89.130 Y105.213 E0.00451
G1 X89.150 Y104.817 E0.01251
G1 X88.587 Y104.254 E0.02513
G1 X88.615 Y103.746 E0.01604
G1 X89.182 Y104.313 E0.02529
G1 X89.290 Y103.885 E0.01393
G1 X88.643 Y103.238 E0.02884
G1 X88.672 Y102.730 E0.01604
G1 X89.409 Y103.467 E0.03288
G1 X89.579 Y103.101 E0.01274
G1 X88.700 Y102.222 E0.03918
G1 X88.729 Y101.714 E0.01604
G1 X89.760 Y102.745 E0.04597
G1 X89.983 Y102.432 E0.01213
G1 X88.776 Y101.225 E0.05380
G1 X88.840 Y100.752 E0.01505
G1 X90.208 Y102.121 E0.06102
G1 X90.484 Y101.860 E0.01197
G1 X88.903 Y100.279 E0.07050
G1 X88.966 Y99.806 E0.01505
G1 X90.759 Y101.599 E0.07997
G1 X90.823 Y101.539 E0.00275
G1 X91.077 Y101.381 E0.00946
G1 X89.030 Y99.333 E0.09132
G1 X89.093 Y98.860 E0.01505
G1 X91.408 Y101.175 E0.10323
G1 X91.571 Y101.072 E0.00609
G1 X91.769 Y100.999 E0.00664
G1 X89.177 Y98.408 E0.11559
G1 X89.263 Y97.957 E0.01446
G1 X92.160 Y100.855 E0.12922
G1 X92.407 Y100.763 E0.00831
G1 X92.579 Y100.737 E0.00548
G1 X89.356 Y97.514 E0.14376
G1 X89.491 Y97.112 E0.01335
G1 X93.045 Y100.667 E0.15853
G1 X93.283 Y100.630 E0.00759
G1 X93.558 Y100.644 E0.00870
G1 X89.626 Y96.711 E0.17540
G1 X89.722 Y96.424 E0.00954
G1 X89.780 Y96.329 E0.00352
G1 X94.124 Y100.673 E0.19374
G1 X94.832 Y100.845 E0.02299
G1 X89.983 Y95.995 E0.21629
G1 X90.186 Y95.662 E0.01231
G1 X111.154 Y116.630 E0.93520
G1 X111.690 Y116.630 E0.01692
G1 X90.411 Y95.350 E0.94907
G1 X90.674 Y95.078 E0.01196
G1 X112.227 Y116.630 E0.96124
G1 X112.763 Y116.630 E0.01692
G1 X90.938 Y94.805 E0.97341
G1 X91.167 Y94.568 E0.01039
G1 X91.210 Y94.540 E0.00161
G1 X113.300 Y116.630 E0.98520
G1 X113.836 Y116.630 E0.01692
G1 X91.537 Y94.332 E0.99451
G1 X91.865 Y94.123 E0.01225
G1 X114.372 Y116.630 E1.00383
G1 X114.909 Y116.630 E0.01692
G1 X92.193 Y93.914 E1.01314
G1 X92.584 Y93.769 E0.01316
G1 X115.445 Y116.630 E1.01961
G1 X115.981 Y116.630 E0.01692
G1 X92.981 Y93.630 E1.02581
G1 X93.313 Y93.514 E0.01109
G1 X93.392 Y93.505 E0.00251
G1 X116.518 Y116.630 E1.03140
G1 X117.054 Y116.630 E0.01692
G1 X93.873 Y93.449 E1.03387
G1 X94.354 Y93.394 E0.01527
G1 X117.591 Y116.630 E1.03633
G1 X118.127 Y116.630 E0.01692
G1 X94.867 Y93.370 E1.03741
G1 X95.403 Y93.370 E0.01692
G1 X118.663 Y116.630 E1.03741
G1 X119.200 Y116.630 E0.01692
G1 X95.939 Y93.370 E1.03741
G1 X96.476 Y93.370 E0.01692
G1 X119.736 Y116.630 E1.03741
G1 X120.272 Y116.630 E0.01692
G1 X97.012 Y93.370 E1.03741
G1 X97.549 Y93.370 E0.01692
G1 X120.809 Y116.630 E1.03741
G1 X121.345 Y116.630 E0.01692
G1 X98.085 Y93.370 E1.03741
G1 X98.621 Y93.370 E0.01692
G1 X121.882 Y116.630 E1.03741
G1 X122.418 Y116.630 E0.01692
G1 X99.158 Y93.370 E1.03741
G1 X99.694 Y93.370 E0.01692
G1 X122.954 Y116.630 E1.03741
G1 X123.491 Y116.630 E0.01692
G1 X100.230 Y93.370 E1.03741
G1 X100.767 Y93.370 E0.01692
G1 X124.027 Y116.630 E1.03741
G1 X124.563 Y116.630 E0.01692
G1 X101.303 Y93.370 E1.03741
G1 X101.840 Y93.370 E0.01692
G1 X125.100 Y116.630 E1.03741
G1 X125.636 Y116.630 E0.01692
G1 X102.376 Y93.370 E1.03741
G1 X102.912 Y93.370 E0.01692
G1 X126.173 Y116.630 E1.03741
G1 X126.709 Y116.630 E0.01692
G1 X103.449 Y93.370 E1.03741
G1 X103.985 Y93.370 E0.01692
G1 X127.245 Y116.630 E1.03741
G1 X127.782 Y116.630 E0.01692
G1 X104.522 Y93.370 E1.03741
G1 X105.058 Y93.370 E0.01692
G1 X128.318 Y116.630 E1.03741
M73 Q1 S116
G1 X128.855 Y116.630 E0.01692
G1 X105.594 Y93.370 E1.03741
M73 P1 R115
G1 X106.131 Y93.370 E0.01692
G1 X129.391 Y116.630 E1.03741
G1 X129.927 Y116.630 E0.01692
G1 X106.667 Y93.370 E1.03741
G1 X107.203 Y93.370 E0.01692
G1 X130.464 Y116.630 E1.03741
G1 X131.000 Y116.630 E0.01692
G1 X107.740 Y93.370 E1.03741
G1 X108.276 Y93.370 E0.01692
G1 X131.536 Y116.630 E1.03741
G1 X132.073 Y116.630 E0.01692
G1 X108.813 Y93.370 E1.03741
G1 X109.349 Y93.370 E0.01692
G1 X132.609 Y116.630 E1.03741
G1 X133.146 Y116.630 E0.01692
G1 X109.885 Y93.370 E1.03741
G1 X110.422 Y93.370 E0.01692
G1 X133.682 Y116.630 E1.03741
